X:1
T:Coronation Day
T:W. A. Post
T:Coronation Day
T:Public Domain
T:Public Domain
T:Public Domain
C:W. A. Post
Z:Public Domain
%%score ( 1 2 ) ( 3 4 )
L:1/8
M:4/4
K:D
V:1 treble 
V:2 treble 
V:3 bass 
V:4 bass 
V:1
 D | (z DD)F (z FF)[FA] | [Fd][Ed][Ed][Gc] [Fd]3 F | (z DD)F (z DD)[Dd] | %4
w: 1.~All|* * hail! * * all|* this cor- o- na- tion|* * day; * * It|
w: 2.~All|* * hail! * * all|* this bless- èd Christ- mas-|* * tide: * * May|
w: 3.~All|* * hail! * * all|* this cor- o- na- tion|* * day; * * The|
 [Ec][Ee][Ee][D^G] [CA]3 [CA] | [GA]>[GB] [Gc][GA] [Fd][Fd][Fd][DF] | %6
w: * to us a- long the|heav’n- ly way; It brings a- gain the|
w: * di- vine with- in our|hearts a- bide; Now ring the sweet- toned|
w: * has come, His glo- ry|fills the way; The Word des- cend- ed|
 [EF]>[E^G] [F^A][EF] [DB]3 [DB] | [ce][Bd][Ac][GB] [DB][DA][Dd]D | [DF]>[EG] [DF][CE] D4 || %9
w: song of peace, The words of|hope and cheer, The Gos- pel true of|good- will, To hu- man|
w: Christ- mas bells, O an- gels,|sing once more Your song of praise, while|al hearts The Ho- ly|
w: from the throne; Be- fore the|world was He, The Fa- ther’s ev- er-|ing Son, From all e-|
"^Refrain" [FA]2 [FA]2 [FA]>[DF] [FA][Fd] | [Af][Fd][Af][Fd] [FA]3 [FA] | %11
w: so dear. * * * *||
w: a- dore. Hail! hail! hail! all|hail! glad hal- le- lu- jahs|
w: ni- ty. * * * *||
 [GA][GB][GA][GB] [GA]>[AB] [CE][GB] | [FA][FB][FA][FB] [DF]4 [FA]2 [FA]2 [FA]>[DF][FA][Fd] | %13
w: ||
w: sing; O hail the cor- o- na- tion|day and crown the Christ our King. Hail! hail! hail! O|
w: ||
 [Af][Fd][Af][Fd] [FA]3 [FA] | [GB][GB][^Ed][Ed] [FA][FA][Dd][Fd] | [Gd]2 [Gc]2 [Fd]3 |] %16
w: |||
w: wel- come, wel- come, day di-|vine; The King has come! His glo- ry|on the world|
w: |||
V:2
 x | F3 A3 x2 | x8 | F3 B3 x2 | x8 | x8 | x8 | x7 D | x4 D4 || x8 | x8 | x8 | x16 | x8 | x8 | x7 |] %16
w: |hail! *||comes *||||glad|hearts||||||||
w: |hail! *||love *||||loy-|One||||||||
w: |hail! *||King *||||last-|ter-||||||||
V:3
 z | z [D,A,][D,A,] z2 [D,D][D,D][D,D] | [D,A,][F,A,]A,[A,,A,] [D,A,]3 z | %3
w: |All hail! all hail! ~|~ ~ ~ ~ ~|
 z [B,,B,][B,,B,] z2 [B,,F,][B,,F,][B,,F,] | [E,A,][E,C][E,B,][E,B,] [A,,A,]3 [A,,A,] | %5
w: comes to us * *||
 [A,C]>[A,B,] A,[E,C] [E,A,][E,A,][E,A,][E,A,] | [F,^A,]>[F,B,] [F,C][F,A,] [B,,B,]3 [B,,B,] | %7
w: ||
 [CE][B,D][A,C][G,B,] [F,D][F,D][F,A,][G,B,] | A,>A, [A,,A,][A,,G,] [D,F,]4 || %9
w: ||
 [D,D]2 [D,D]2 [D,D]>[D,A,] [D,D][D,A,] | [D,D][D,A,][D,D][D,A,] [D,D]3 [D,D] | %11
w: ||
 [E,C][E,C][A,C][A,C] [E,C]>[E,C] A,[A,,C] | %12
w: |
 [D,D][D,D][D,D][D,D] [D,A,]4 [D,D]2 [D,D]2 [D,D]>[D,A,][D,D][D,A,] | %13
w: |
 [D,D][D,A,][D,D][D,A,] [D,D]3 [D,D] | [G,D][G,D][^G,B,][G,B,] [A,D][A,D][F,D][D,D] | %15
w: ||
 [A,,E]2 [A,,A,]2 [D,A,]3 |] %16
w: |
V:4
 x | x8 | x2 A, x5 | x8 | x8 | x2 A, x5 | x8 | x8 | A,>A, x6 || x8 | x8 | x6 A, x | x16 | x8 | x8 | %15
w: ||It|||||||||||||
 x7 |] %16
w: |

